X: 47
P: No. XLVII.
M: 6/8
L: 1/8
K: D
V: 1
|:\
|:\
V: 2 clef=bass middle=d
|:\
d3 f3 | d3 gfg | a3  f3  | e3 a3 |\
f3 d3 | f3 gag | f2e d2g | a2A d3 :|
|:\
c3 A3 | c3 ede | f2e f2g | a2A d3 :|

